X: 40382
T: Tom Hackett's Dream
R: jig
M: 6/8
K: Gmajor
dc|B2 B GBd|ecc Gce|dBG dBG|FGA AGA|
B2 B GBd|ecc Gce|dBG DFA|AGF G2:|
|:zA|B2 d gdB|c2 d gdc|B2 d gdB|Aff fed|
B2 d gdB|c2 d gdc|BdB AFA|AGF G:|

